x-pack/solutions/search/plugins/enterprise_search/public/assets/client_libraries/go.svg

<svg width="24" height="24" viewBox="0 0 24 24" fill="none" xmlns="http://www.w3.org/2000/svg">
<path fill-rule="evenodd" clip-rule="evenodd" d="M2.09177 10.2805C2.0462 10.2805 2.03495 10.2576 2.05764 10.2237L2.29633 9.91672C2.31883 9.8826 2.37583 9.85991 2.4212 9.85991H6.47814C6.5237 9.85991 6.53495 9.89404 6.51227 9.92816L6.31914 10.2237C6.29645 10.2576 6.23964 10.2917 6.20552 10.2917L2.09177 10.2805ZM0.375767 11.3258C0.330392 11.3258 0.318954 11.3033 0.341642 11.269L0.580329 10.9622C0.603017 10.9281 0.659829 10.9054 0.705392 10.9054H5.88714C5.93252 10.9054 5.95539 10.9395 5.94395 10.9737L5.85302 11.2463C5.84177 11.2918 5.7962 11.3145 5.75083 11.3145L0.375767 11.3258ZM3.12564 12.3713C3.08027 12.3713 3.06902 12.3372 3.0917 12.303L3.2507 12.019C3.27358 11.9848 3.31895 11.9509 3.36452 11.9509H5.63702C5.68258 11.9509 5.70527 11.9848 5.70527 12.0304L5.68277 12.303C5.68277 12.3486 5.6372 12.3827 5.60308 12.3827L3.12564 12.3713ZM14.9213 10.0759C14.2052 10.2578 13.7166 10.3941 13.0121 10.5758C12.8415 10.6213 12.8303 10.6326 12.6825 10.4622C12.5121 10.269 12.387 10.144 12.1485 10.0303C11.4325 9.67822 10.7393 9.78041 10.0916 10.201C9.31895 10.7008 8.92127 11.4394 8.93252 12.3598C8.94377 13.269 9.56889 14.019 10.4666 14.1441C11.2393 14.2463 11.8871 13.9735 12.3985 13.3941C12.5006 13.269 12.5916 13.1327 12.7052 12.9735H10.512C10.2735 12.9735 10.2167 12.8258 10.2962 12.6327C10.444 12.2803 10.7166 11.6895 10.8756 11.394C10.9099 11.3258 10.9894 11.2122 11.1598 11.2122H15.2961C15.2736 11.5191 15.2736 11.8258 15.228 12.1328C15.103 12.9508 14.7962 13.7008 14.2961 14.3599C13.4779 15.4395 12.4099 16.1098 11.0575 16.2917C9.94389 16.4395 8.90983 16.2235 8.00083 15.5417C7.15989 14.9053 6.6827 14.0644 6.55764 13.0191C6.40989 11.7805 6.77345 10.6667 7.52345 9.68947C8.33027 8.63272 9.39845 7.96222 10.7053 7.72354C11.7735 7.53041 12.7961 7.65547 13.7166 8.28041C14.3188 8.6781 14.7506 9.22354 15.0347 9.8826C15.103 9.98497 15.0576 10.0418 14.9211 10.0757L14.9213 10.0759Z" fill="#00ACD7"/>
<path d="M18.6826 16.3602C17.6485 16.3373 16.7052 16.042 15.9098 15.36C15.2393 14.7807 14.8189 14.0419 14.6826 13.1669C14.4781 11.8829 14.8302 10.7464 15.6031 9.73523C16.4326 8.64417 17.4325 8.07605 18.7849 7.83736C19.9439 7.63298 21.0349 7.74661 22.0234 8.41692C22.9212 9.03061 23.4779 9.86011 23.6256 10.951C23.8187 12.4851 23.3757 13.7352 22.3187 14.8034C21.5687 15.5646 20.6483 16.042 19.5916 16.2578C19.2848 16.3146 18.9779 16.326 18.6826 16.3602ZM21.3871 11.7692C21.3758 11.6215 21.3758 11.5079 21.3529 11.3942C21.1486 10.2692 20.1143 9.63286 19.0349 9.88298C17.9779 10.1215 17.2962 10.792 17.0462 11.8602C16.8417 12.7465 17.2735 13.6442 18.0916 14.0078C18.7167 14.2806 19.3416 14.2465 19.9439 13.9397C20.8416 13.4738 21.3302 12.7465 21.3871 11.7692Z" fill="#00ACD7"/>
</svg>

<svg xmlns="http://www.w3.org/2000/svg" width="24" height="24" fill="none"><path fill="#00ACD7" fill-rule="evenodd" d="M2.092 10.28c-.046 0-.057-.022-.034-.056l.238-.307c.023-.034.08-.057.125-.057h4.057c.046 0 .057.034.034.068l-.193.296c-.023.034-.08.068-.113.068zM.376 11.327c-.046 0-.057-.023-.034-.057l.238-.307c.023-.034.08-.057.125-.057h5.182c.046 0 .068.035.057.069l-.091.272c-.011.046-.057.069-.102.069zm2.75 1.045c-.046 0-.057-.034-.034-.068l.159-.284c.023-.034.068-.068.114-.068h2.272c.046 0 .068.034.068.08l-.022.272c0 .046-.046.08-.08.08zm11.795-2.295c-.716.182-1.204.318-1.909.5-.17.045-.182.057-.33-.114-.17-.193-.295-.318-.534-.432-.716-.352-1.409-.25-2.056.171-.773.5-1.17 1.238-1.16 2.159.012.909.637 1.659 1.535 1.784.772.102 1.42-.17 1.931-.75.103-.125.194-.261.307-.42h-2.193c-.239 0-.295-.148-.216-.341.148-.353.42-.943.58-1.239a.31.31 0 0 1 .284-.182h4.136c-.022.307-.022.614-.068.92a4.85 4.85 0 0 1-.932 2.228c-.818 1.08-1.886 1.75-3.238 1.932-1.114.147-2.148-.069-3.057-.75-.841-.637-1.318-1.478-1.443-2.523-.148-1.239.215-2.352.965-3.33.807-1.056 1.875-1.727 3.182-1.965 1.069-.194 2.091-.069 3.012.556a3.56 3.56 0 0 1 1.318 1.603c.068.102.023.159-.114.193" clip-rule="evenodd"/><path fill="#00ACD7" d="M18.683 16.36c-1.035-.023-1.978-.318-2.773-1a3.56 3.56 0 0 1-1.227-2.193c-.205-1.284.147-2.42.92-3.432.83-1.09 1.83-1.659 3.182-1.898 1.159-.204 2.25-.09 3.238.58.898.614 1.455 1.443 1.603 2.534.193 1.534-.25 2.784-1.307 3.852-.75.762-1.67 1.239-2.727 1.455-.307.057-.614.068-.91.102m2.704-4.59c-.011-.149-.011-.262-.034-.376-.204-1.125-1.239-1.761-2.318-1.511-1.057.239-1.739.909-1.989 1.977-.204.886.227 1.784 1.046 2.148.625.273 1.25.239 1.852-.068.898-.466 1.386-1.194 1.443-2.17"/></svg>
